X: 1
T: Flannel Dreams
R: jig
M: 6/8
L: 1/8
K: Amaj
E|:"A" GAE GAE|B2 A3 E|"D" GAE GAE|EDC D2 E|
"A" GAE GAE|B2 A2 AG|1 "D" F2 A e2 c-|"F#m"cdc "E"B2 E:|2 "D"F2 A e2 c-|"F#m"cdc "E"Bcd||
|:"D" f2 f2ed|"A" edc cdc|"E" B2 B2AB|"F#m"c3 "E"B2 A|
"D" f2 f2ed|"A" edc BcA|1 "F#m"F5 E|FAB cdA:|2 "F#m"F3 E3|"E"G3 E3||

%%newpage
%% header "Will+Christian - Bus Stop/Earl's Chair		$P"

